src/assets/filled/Diamonds.svg

<svg width="24" height="24" viewBox="0 0 24 24"  xmlns="http://www.w3.org/2000/svg">
<path d="M21.77 9.80039L20.97 8.00039L19.21 4.04039C18.74 3.00039 18 2.15039 16.3 2.15039H7.69995C5.99995 2.15039 5.25995 3.00039 4.78995 4.04039L3.02995 8.00039L2.22995 9.80039C1.76995 10.8504 2.01995 12.3904 2.78995 13.2404L9.63995 20.7804C10.94 22.2104 13.06 22.2104 14.36 20.7804L21.21 13.2404C21.98 12.3904 22.23 10.8504 21.77 9.80039Z" />
</svg>

<?xml version="1.0" encoding="UTF-8"?>
<svg width="24" height="24" viewBox="0 0 24 24" xmlns="http://www.w3.org/2000/svg">
 <path d="m21.77 9.8004-2.56-5.76c-0.47-1.04-1.21-1.89-2.91-1.89h-8.6c-1.7 0-2.44 0.85-2.91 1.89l-2.56 5.76c-0.46 1.05-0.21 2.59 0.56 3.44l6.85 7.54c1.3 1.43 3.42 1.43 4.72 0l6.85-7.54c0.77-0.85 1.02-2.39 0.56-3.44z"/>
</svg>
